; generated by Slic3r 1.2.9 on 2017-07-28 at 19:15:54

; external perimeters extrusion width = 0.40mm
; perimeters extrusion width = 0.56mm
; infill extrusion width = 0.56mm
; solid infill extrusion width = 0.56mm
; top infill extrusion width = 0.56mm

M107
M190 S60 ; set bed temperature
M104 S215 ; set temperature
G28 ; home all axes
G32 ; level compensation

M109 S215 ; wait for temperature to be reached
G21 ; set units to millimeters
G90 ; use absolute coordinates
M82 ; use absolute distances for extrusion
G92 E0
G1 Z0.350 F6000.000
G1 E-4.00000 F3000.00000
G92 E0
G1 X104.239 Y131.818 F6000.000
G1 E4.00000 F3000.00000
G1 X104.660 Y131.517 E4.04754 F891.000
G1 X105.102 Y131.246 E4.09508
G1 X105.561 Y131.006 E4.14265
G1 X106.032 Y130.801 E4.18981
G1 X106.499 Y130.635 E4.23542
G1 X106.978 Y130.500 E4.28106
G1 X107.449 Y130.400 E4.32532
G1 X107.905 Y130.334 E4.36760
G1 X108.342 Y130.297 E4.40792
G1 X156.733 Y127.717 E8.85840
G1 X157.224 Y127.707 E8.90350
G1 X157.970 Y127.746 E8.97207 F891.000
G1 X166.652 Y128.589 E9.77321
G1 X167.114 Y128.649 E9.81592
G1 X177.106 Y130.268 E10.74559
G1 X178.745 Y130.572 E10.89871
G1 X180.294 Y130.904 E11.04419
G1 X182.401 Y131.436 E11.24378
G1 X183.398 Y131.725 E11.33905
G1 X184.414 Y132.047 E11.43694
G1 X185.237 Y132.330 E11.51690
G1 X186.257 Y132.713 E11.61693
G1 X187.921 Y133.419 E11.78295
G1 X189.502 Y134.185 E11.94433
G1 X190.923 Y134.964 E12.09316
G1 X192.460 Y135.915 E12.25909
G1 X193.288 Y136.482 E12.35131
G1 X194.235 Y137.183 E12.45947
G1 X195.539 Y138.265 E12.61514
G1 X195.956 Y138.644 E12.66684
G1 X196.503 Y139.240 E12.74118
G1 X196.815 Y139.648 E12.78838
G1 X197.086 Y140.055 E12.83318
G1 X197.342 Y140.503 E12.88063
G1 X197.568 Y140.969 E12.92819
G1 X197.766 Y141.464 E12.97718
G1 X197.931 Y141.981 E13.02699
G1 X198.062 Y142.526 E13.07841
G1 X198.181 Y143.352 E13.15510
G1 X198.624 Y148.488 E13.62855
G1 X198.635 Y149.045 E13.67970
G1 X198.612 Y149.514 E13.72284
G1 X198.562 Y149.962 E13.76424
G1 X198.487 Y150.397 E13.80479
G1 X198.385 Y150.836 E13.84612
G1 X198.257 Y151.265 E13.88726
G1 X198.102 Y151.688 E13.92867
G1 X197.743 Y152.499 E14.01009
G1 X197.174 Y153.647 E14.12779
G1 X196.565 Y154.749 E14.24338
G1 X195.802 Y155.989 E14.37710
G1 X194.945 Y157.238 E14.51620
G1 X194.420 Y157.934 E14.59632
G1 X193.846 Y158.643 E14.68007
G1 X193.221 Y159.360 E14.76739
G1 X192.543 Y160.078 E14.85809
G1 X191.805 Y160.794 E14.95257
G1 X191.282 Y161.263 E15.01704
G1 X190.219 Y162.143 E15.14380
G1 X189.382 Y162.782 E15.24051
G1 X188.547 Y163.377 E15.33465
G1 X187.717 Y163.927 E15.42608
G1 X186.895 Y164.435 E15.51486
G1 X185.991 Y164.952 E15.61045
G1 X184.770 Y165.590 E15.73700
G1 X183.228 Y166.303 E15.89299
G1 X181.767 Y166.893 E16.03771
G1 X180.200 Y167.448 E16.19042
G1 X179.005 Y167.826 E16.30553
G1 X177.503 Y168.263 E16.44917
G1 X176.182 Y168.615 E16.57475
G1 X167.533 Y170.718 E17.39221
G1 X166.977 Y170.822 E17.44413
G1 X157.818 Y172.240 E18.29533
G1 X157.276 Y172.284 E18.34524
G1 X156.483 Y172.286 E18.41807
G1 X147.787 Y171.881 E19.21763
G1 X108.165 Y168.791 E22.86748
G1 X107.436 Y168.698 E22.93498
G1 X106.961 Y168.596 E22.97958
G1 X106.499 Y168.466 E23.02363
G1 X106.021 Y168.295 E23.07029
G1 X105.560 Y168.094 E23.11647
G1 X105.111 Y167.860 E23.16294
G1 X104.667 Y167.588 E23.21079
G1 X104.249 Y167.290 E23.25789
G1 X103.843 Y166.955 E23.30627
G1 X103.465 Y166.595 E23.35421
G1 X103.117 Y166.212 E23.40173
G1 X102.790 Y165.799 E23.45010
G1 X102.500 Y165.371 E23.49760
G1 X102.245 Y164.934 E23.54402
G1 X102.018 Y164.475 E23.59105
G1 X101.824 Y164.004 E23.63784
G1 X101.670 Y163.543 E23.68253
G1 X101.547 Y163.071 E23.72731
G1 X101.457 Y162.607 E23.77070
G1 X101.399 Y162.157 E23.81239
G1 X101.369 Y161.709 E23.85363
G1 X101.364 Y137.661 E26.06219
G1 X101.397 Y136.958 E26.12677
G1 X101.457 Y136.492 E26.16998
G1 X101.547 Y136.029 E26.21321
G1 X101.674 Y135.546 E26.25910
G1 X101.827 Y135.088 E26.30347
G1 X102.015 Y134.631 E26.34881
G1 X102.244 Y134.167 E26.39640
G1 X102.499 Y133.730 E26.44289
G1 X102.785 Y133.309 E26.48954
G1 X103.108 Y132.899 E26.53749
G1 X103.466 Y132.505 E26.58637
G1 X103.836 Y132.152 E26.63335
G1 X104.193 Y131.856 E26.67597
G1 X104.620 Y132.313 F6000.000
G1 X105.006 Y132.037 E26.71948 F891.000
G1 X105.409 Y131.789 E26.76300
G1 X105.830 Y131.570 E26.80658
G1 X106.261 Y131.382 E26.84977
G1 X106.689 Y131.230 E26.89151
G1 X107.127 Y131.106 E26.93329
G1 X107.559 Y131.015 E26.97379
G1 X107.975 Y130.955 E27.01243
G1 X108.376 Y130.921 E27.04934
G1 X156.767 Y128.341 E31.49982
G1 X157.216 Y128.332 E31.54108
G1 X157.910 Y128.368 E31.60488 F891.000
G1 X166.592 Y129.211 E32.40601
G1 X167.014 Y129.265 E32.44507
G1 X176.994 Y130.883 E33.37357
G1 X178.614 Y131.183 E33.52493
G1 X180.163 Y131.515 E33.67042
G1 X182.024 Y131.982 E33.84664
G1 X183.056 Y132.275 E33.94511
G1 X184.039 Y132.581 E34.03971
G1 X185.223 Y132.990 E34.15476
G1 X186.299 Y133.403 E34.26059
G1 X187.989 Y134.137 E34.42980
G1 X189.520 Y134.899 E34.58684
G1 X190.892 Y135.670 E34.73140
G1 X191.856 Y136.267 E34.83554
G1 X192.936 Y136.998 E34.95525
G1 X194.157 Y137.918 E35.09570
G1 X195.487 Y139.059 E35.25667
G1 X195.780 Y139.361 E35.29528
G1 X196.054 Y139.679 E35.33386
G1 X196.315 Y140.024 E35.37354
G1 X196.554 Y140.383 E35.41317
G1 X196.782 Y140.780 E35.45523
G1 X196.997 Y141.223 E35.50039
G1 X197.178 Y141.677 E35.54529
G1 X197.330 Y142.150 E35.59096
G1 X197.446 Y142.631 E35.63638
G1 X197.532 Y143.159 E35.68556
G1 X197.986 Y148.315 E36.16091
G1 X198.010 Y149.048 E36.22826
G1 X197.989 Y149.464 E36.26650
G1 X197.943 Y149.875 E36.30446
G1 X197.803 Y150.588 E36.37120
G1 X197.688 Y150.993 E36.40982
G1 X197.400 Y151.744 E36.48372
G1 X196.744 Y153.119 E36.62361
G1 X196.030 Y154.425 E36.76034
G1 X195.286 Y155.638 E36.89103
G1 X194.444 Y156.864 E37.02756
G1 X193.526 Y158.051 E37.16542
G1 X192.938 Y158.740 E37.24861
G1 X192.300 Y159.431 E37.33497
G1 X191.387 Y160.329 E37.45257
G1 X190.658 Y160.976 E37.54211
G1 X189.838 Y161.648 E37.63948
G1 X189.018 Y162.275 E37.73427
G1 X188.200 Y162.857 E37.82650
G1 X187.387 Y163.397 E37.91609
G1 X186.581 Y163.895 E38.00308
G1 X185.702 Y164.398 E38.09612
G1 X184.481 Y165.036 E38.22267
G1 X182.970 Y165.734 E38.37551
G1 X181.536 Y166.312 E38.51747
G1 X180.010 Y166.852 E38.66615
G1 X178.830 Y167.226 E38.77988
G1 X177.342 Y167.660 E38.92220
G1 X176.034 Y168.008 E39.04649
G1 X167.401 Y170.107 E39.86241
G1 X166.881 Y170.204 E39.91104
G1 X157.745 Y171.620 E40.76011
G1 X157.249 Y171.660 E40.80577
G1 X156.512 Y171.661 E40.87346
G1 X147.835 Y171.258 E41.67120
G1 X108.213 Y168.168 E45.32105
G1 X107.546 Y168.083 E45.38286
G1 X107.111 Y167.990 E45.42368
G1 X106.689 Y167.870 E45.46394
G1 X106.251 Y167.714 E45.50671
G1 X105.830 Y167.530 E45.54891
G1 X105.419 Y167.316 E45.59144
G1 X105.012 Y167.067 E45.63523
G1 X104.630 Y166.794 E45.67835
G1 X104.258 Y166.488 E45.72262
G1 X103.912 Y166.158 E45.76650
G1 X103.593 Y165.808 E45.80999
G1 X103.295 Y165.430 E45.85426
G1 X103.028 Y165.038 E45.89774
G1 X102.795 Y164.639 E45.94023
G1 X102.587 Y164.218 E45.98328
G1 X102.410 Y163.786 E46.02616
G1 X102.269 Y163.364 E46.06707
G1 X102.156 Y162.932 E46.10805
G1 X102.074 Y162.508 E46.14777
G1 X102.021 Y162.096 E46.18586
G1 X101.993 Y161.686 E46.22360
G1 X101.989 Y137.661 E48.43010
G1 X102.019 Y137.018 E48.48917
G1 X102.074 Y136.591 E48.52872
G1 X102.156 Y136.168 E48.56828
G1 X102.272 Y135.725 E48.61035
G1 X102.413 Y135.306 E48.65097
G1 X102.584 Y134.888 E48.69239
G1 X102.795 Y134.463 E48.73602
G1 X103.029 Y134.061 E48.77874
G1 X103.289 Y133.678 E48.82120
G1 X103.584 Y133.303 E48.86508
G1 X103.913 Y132.942 E48.90989
G1 X104.251 Y132.619 E48.95282
G1 X104.574 Y132.351 E48.99137
G1 E44.99137 F3000.00000
G92 E0
G1 X156.748 Y164.052 F6000.000
G1 E4.00000 F3000.00000
G1 X156.577 Y163.979 E4.01707 F594.000
G1 X156.429 Y163.830 E4.03639
G1 X156.350 Y163.630 E4.05613
G1 X156.357 Y163.417 E4.07570
G1 X156.848 Y161.765 E4.23393
G1 X157.272 Y160.131 E4.38900
G1 X157.634 Y158.481 E4.54414
G1 X157.935 Y156.820 E4.69910
G1 X158.125 Y155.536 E4.81836
G1 X158.277 Y154.248 E4.93742
G1 X158.415 Y152.593 E5.09001
G1 X159.478 Y152.593 E5.18761
G1 X159.258 Y154.929 E5.40313
G1 X158.972 Y156.988 E5.59407
G1 X158.664 Y158.687 E5.75264
G1 X158.293 Y160.375 E5.91137
G1 X157.859 Y162.048 E6.07011
G1 X157.373 Y163.670 E6.22561
G1 X157.313 Y163.812 E6.23977
G1 X157.216 Y163.931 E6.25392
G1 X157.101 Y164.006 E6.26645
G1 X156.974 Y164.056 E6.27897
G1 X156.807 Y164.060 E6.29432
G1 E2.29432 F3000.00000
G92 E0
G1 X163.811 Y150.088 F6000.000
G1 E4.00000 F3000.00000
G1 X163.811 Y149.023 E4.09782 F594.000
G1 X167.182 Y149.028 E4.40736
G1 X167.182 Y150.082 E4.50412
G1 X163.871 Y150.088 E4.80815
G1 E0.80815 F3000.00000
G92 E0
G1 X159.476 Y146.518 F6000.000
G1 E4.00000 F3000.00000
G1 X158.416 Y146.518 E4.09734 F594.000
G1 X158.211 Y144.265 E4.30508
G1 X158.073 Y143.199 E4.40384
G1 X157.806 Y141.534 E4.55868
G1 X157.477 Y139.877 E4.71382
G1 X157.086 Y138.234 E4.86889
G1 X156.629 Y136.573 E5.02713
G1 X156.627 Y136.360 E5.04669
G1 X156.709 Y136.162 E5.06643
G1 X156.860 Y136.016 E5.08575
G1 X157.032 Y135.946 E5.10277
G1 X157.260 Y135.947 E5.12373
G1 X157.411 Y136.009 E5.13870
G1 X157.534 Y136.113 E5.15345
G1 X157.650 Y136.341 E5.17695
G1 X158.103 Y137.972 E5.33242
G1 X158.503 Y139.653 E5.49116
G1 X158.840 Y141.349 E5.64989
G1 X159.113 Y143.056 E5.80868
G1 X159.310 Y144.649 E5.95616
G1 X159.471 Y146.458 E6.12291
G1 X160.105 Y146.530 F6000.000
G1 X163.389 Y146.530 E6.42453 F396.000
G1 X163.525 Y146.569 E6.43752
G1 X163.686 Y146.702 E6.45672
G1 X163.735 Y146.806 E6.46725
G1 X163.756 Y146.918 E6.47773
G1 X163.760 Y147.938 E6.57141
G1 X163.918 Y148.237 E6.60246
G1 X164.208 Y148.398 E6.63292
G1 X167.806 Y148.405 E6.96344
G1 X167.806 Y150.706 E7.17478
G1 X164.208 Y150.712 E7.50530
G1 X163.918 Y150.873 E7.53576
G1 X163.760 Y151.173 E7.56681
G1 X163.756 Y152.192 E7.66046
G1 X163.735 Y152.304 E7.67093
G1 X163.686 Y152.409 E7.68154
G1 X163.524 Y152.542 E7.70078
G1 X163.387 Y152.580 E7.71387
G1 X160.106 Y152.580 E8.01512
G1 X159.879 Y155.001 E8.23844
G1 X159.589 Y157.087 E8.43184
G1 X159.277 Y158.810 E8.59265
G1 X158.900 Y160.521 E8.75352
G1 X158.461 Y162.216 E8.91439
G1 X157.962 Y163.882 E9.07410
G1 X157.823 Y164.177 E9.10402
G1 X157.597 Y164.429 E9.13509
G1 X157.389 Y164.565 E9.15788
G1 X157.061 Y164.676 E9.18972
G1 X156.827 Y164.692 E9.21124
G1 X156.612 Y164.665 E9.23112
G1 X156.417 Y164.603 E9.24994
G1 X156.227 Y164.500 E9.26979
G1 X156.049 Y164.354 E9.29097
G1 X155.903 Y164.173 E9.31230
G1 X155.794 Y163.962 E9.33413
G1 X155.731 Y163.735 E9.35571
G1 X155.715 Y163.508 E9.37661
G1 X155.743 Y163.287 E9.39706
G1 X156.246 Y161.598 E9.55897
G1 X156.664 Y159.985 E9.71195
G1 X157.022 Y158.358 E9.86496
G1 X157.319 Y156.719 E10.01791
G1 X157.505 Y155.453 E10.13540
G1 X157.655 Y154.184 E10.25283
G1 X157.769 Y152.910 E10.37026
G1 X157.827 Y151.968 E10.45698
G1 X162.639 Y151.967 E10.89892
G1 X162.835 Y151.920 E10.91748
G1 X163.018 Y151.793 E10.93793
G1 X163.150 Y151.594 E10.95987
G1 X163.186 Y151.401 E10.97790
G1 X163.186 Y147.686 E11.31911
G1 X163.126 Y147.461 E11.34049
G1 X162.936 Y147.238 E11.36737
G1 X162.642 Y147.143 E11.39573
G1 X157.827 Y147.143 E11.83791
G1 X157.782 Y146.384 E11.90772
G1 X157.590 Y144.335 E12.09676
G1 X157.455 Y143.288 E12.19364
G1 X157.191 Y141.644 E12.34654
G1 X156.866 Y140.010 E12.49955
G1 X156.481 Y138.390 E12.65254
G1 X156.013 Y136.690 E12.81444
G1 X155.990 Y136.469 E12.83489
G1 X156.010 Y136.242 E12.85579
G1 X156.077 Y136.017 E12.87738
G1 X156.190 Y135.808 E12.89920
G1 X156.340 Y135.630 E12.92054
G1 X156.521 Y135.487 E12.94172
G1 X156.713 Y135.389 E12.96157
G1 X156.910 Y135.330 E12.98036
G1 X157.128 Y135.308 E13.00050
G1 X157.358 Y135.328 E13.02177
G1 X157.690 Y135.448 E13.05419
G1 X157.781 Y135.504 E13.06400
G1 X158.038 Y135.742 E13.09610
G1 X158.161 Y135.934 E13.11711
G1 X158.243 Y136.140 E13.13748
G1 X158.708 Y137.816 E13.29718
G1 X159.113 Y139.520 E13.45805
G1 X159.455 Y141.238 E13.61892
G1 X159.732 Y142.968 E13.77981
G1 X159.932 Y144.583 E13.92931
G1 X160.099 Y146.470 E14.10329
G1 X160.116 Y146.930 F6000.000
G1 X158.921 Y146.205 F6000.000
G1 X158.729 Y144.204 E14.49484 F396.000
G1 X158.593 Y143.127 E14.70621
G1 X158.323 Y141.441 E15.03858
G1 X157.990 Y139.765 E15.37133
G1 X157.596 Y138.108 E15.70306
G1 X157.082 Y136.295 E16.06995
G1 E12.06995 F3000.00000
G92 E0
G1 X164.124 Y149.555 F6000.000
G1 E4.00000 F3000.00000
G1 X166.869 Y149.555 E4.53461 F396.000
G1 E0.53461 F3000.00000
G92 E0
G1 X158.923 Y152.905 F6000.000
G1 E4.00000 F3000.00000
G1 X158.797 Y154.273 E4.12618 F396.000
G1 X158.798 Y154.273 F6000.000
G1 X158.649 Y155.532 E4.37293 F396.000
G1 X158.568 Y156.106 F6000.000
G1 X158.453 Y156.905 E4.53010 F396.000
G1 X158.149 Y158.584 E4.86230
G1 X157.782 Y160.253 E5.19505
G1 X157.353 Y161.907 E5.52780
G1 X156.804 Y163.705 E5.89378
G1 E1.89378 F3000.00000
G92 E0
G1 X151.345 Y152.593 F6000.000
G1 E4.00000 F3000.00000
G1 X151.222 Y153.862 E4.11717 F594.000
G1 X151.098 Y154.873 E4.21069
G1 X150.947 Y155.880 E4.30421
G1 X150.771 Y156.879 E4.39734
G1 X150.423 Y158.525 E4.55190
G1 X150.004 Y160.151 E4.70609
G1 X149.517 Y161.758 E4.86027
G1 X148.973 Y163.310 E5.01135
G1 X148.907 Y163.447 E5.02533
G1 X148.802 Y163.562 E5.03956
G1 X148.686 Y163.630 E5.05193
G1 X148.582 Y163.666 E5.06205
G1 X148.396 Y163.671 E5.07911
G1 X148.228 Y163.617 E5.09533
G1 X148.085 Y163.508 E5.11188
G1 X147.977 Y163.322 E5.13159
G1 X147.951 Y163.114 E5.15084
G1 X147.971 Y163.004 E5.16112
G1 X148.520 Y161.431 E5.31414
G1 X148.994 Y159.868 E5.46411
G1 X149.400 Y158.286 E5.61417
G1 X149.739 Y156.690 E5.76401
G1 X149.954 Y155.441 E5.88033
G1 X150.128 Y154.189 E5.99642
G1 X150.284 Y152.593 E6.14377
G1 X151.285 Y152.593 E6.23575
G1 E2.23575 F3000.00000
G92 E0
G1 X155.686 Y150.088 F6000.000
G1 E4.00000 F3000.00000
G1 X155.686 Y149.023 E4.09782 F594.000
G1 X159.057 Y149.028 E4.40736
G1 X159.057 Y150.082 E4.50412
G1 X155.746 Y150.088 E4.80815
G1 E0.80815 F3000.00000
G92 E0
G1 X151.343 Y146.518 F6000.000
G1 E4.00000 F3000.00000
G1 X150.285 Y146.518 E4.09716 F594.000
G1 X150.183 Y145.456 E4.19512
G1 X150.063 Y144.469 E4.28644
G1 X149.916 Y143.481 E4.37815
G1 X149.622 Y141.878 E4.52783
G1 X149.257 Y140.286 E4.67788
G1 X148.826 Y138.711 E4.82785
G1 X148.320 Y137.123 E4.98088
G1 X148.308 Y136.909 E5.00056
G1 X148.382 Y136.708 E5.02027
G1 X148.526 Y136.556 E5.03952
G1 X148.763 Y136.468 E5.06274
G1 X148.948 Y136.478 E5.07980
G1 X149.052 Y136.516 E5.08992
G1 X149.166 Y136.588 E5.10229
G1 X149.267 Y136.705 E5.11652
G1 X149.329 Y136.844 E5.13051
G1 X149.832 Y138.411 E5.28158
G1 X150.276 Y140.030 E5.43577
G1 X150.650 Y141.666 E5.58995
G1 X150.954 Y143.319 E5.74424
G1 X151.163 Y144.787 E5.88042
G1 X151.337 Y146.458 E6.03475
G1 X151.972 Y146.530 F6000.000
G1 X155.255 Y146.530 E6.33620 F396.000
G1 X155.401 Y146.568 E6.35004
G1 X155.526 Y146.657 E6.36418
G1 X155.610 Y146.801 E6.37944
G1 X155.631 Y146.897 E6.38845
G1 X155.635 Y147.938 E6.48407
G1 X155.793 Y148.237 E6.51513
G1 X156.083 Y148.398 E6.54558
G1 X159.681 Y148.405 E6.87610
G1 X159.681 Y150.706 E7.08744
G1 X156.083 Y150.712 E7.41796
G1 X155.793 Y150.873 E7.44843
G1 X155.635 Y151.173 E7.47948
G1 X155.631 Y152.213 E7.57506
G1 X155.609 Y152.310 E7.58411
G1 X155.525 Y152.453 E7.59943
G1 X155.399 Y152.543 E7.61362
G1 X155.252 Y152.580 E7.62758
G1 X151.974 Y152.580 E7.92858
G1 X151.844 Y153.931 E8.05319
G1 X151.717 Y154.957 E8.14819
G1 X151.564 Y155.981 E8.24320
G1 X151.385 Y156.998 E8.33807
G1 X151.031 Y158.668 E8.49485
G1 X150.606 Y160.320 E8.65149
G1 X150.111 Y161.952 E8.80814
G1 X149.551 Y163.550 E8.96366
G1 X149.399 Y163.835 E8.99331
G1 X149.159 Y164.077 E9.02463
G1 X148.947 Y164.202 E9.04718
G1 X148.720 Y164.278 E9.06918
G1 X148.490 Y164.306 E9.09044
G1 X148.274 Y164.288 E9.11041
G1 X147.968 Y164.190 E9.13994
G1 X147.787 Y164.081 E9.15930
G1 X147.618 Y163.928 E9.18021
G1 X147.480 Y163.738 E9.20179
G1 X147.381 Y163.522 E9.22360
G1 X147.330 Y163.293 E9.24519
G1 X147.325 Y163.065 E9.26609
G1 X147.364 Y162.846 E9.28658
G1 X147.925 Y161.237 E9.44303
G1 X148.392 Y159.700 E9.59060
G1 X148.792 Y158.143 E9.73819
G1 X149.125 Y156.572 E9.88571
