; generated by Slic3r 1.2.9 on 2017-07-28 at 17:34:52

; external perimeters extrusion width = 0.40mm
; perimeters extrusion width = 0.56mm
; infill extrusion width = 0.56mm
; solid infill extrusion width = 0.56mm
; top infill extrusion width = 0.56mm

M107
M190 S60 ; set bed temperature
M104 S215 ; set temperature
G28 ; home all axes
G32 ; level compensation

M109 S215 ; wait for temperature to be reached
G21 ; set units to millimeters
G90 ; use absolute coordinates
M82 ; use absolute distances for extrusion
G92 E0
G1 Z0.350 F6000.000
G1 E-4.00000 F3000.00000
G92 E0
G1 X112.006 Y112.371 F6000.000
G1 E4.00000 F3000.00000
G1 X112.995 Y111.392 E4.12783 F891.000
G1 X114.477 Y110.188 E4.30321
G1 X116.146 Y109.192 E4.48170
G1 X144.324 Y97.161 E7.29551
G1 X145.805 Y96.709 E7.43771
G1 X148.528 Y96.186 E7.69240
G1 X151.616 Y96.263 E7.97609
G1 X152.305 Y96.436 E8.04127 F891.000
G1 X154.870 Y97.149 E8.28584
G1 X155.722 Y97.444 E8.36862
G1 X183.800 Y109.170 E11.16314
G1 X185.523 Y110.188 E11.34688
G1 X187.005 Y111.392 E11.52226
G1 X187.994 Y112.371 E11.65009
G1 X189.206 Y113.851 E11.82568
G1 X190.339 Y115.789 E12.03191
G1 X202.754 Y147.485 E15.15813
G1 X203.070 Y148.505 E15.25625
G1 X203.480 Y150.290 E15.42437
G1 X203.660 Y151.690 E15.55403
G1 X203.717 Y153.559 E15.72578
G1 X203.550 Y155.325 E15.88866
G1 X203.111 Y157.286 E16.07328
G1 X202.420 Y159.059 E16.24800
G1 X189.666 Y182.202 E18.67485
G1 X189.007 Y183.195 E18.78423
G1 X187.824 Y184.690 E18.95939
G1 X186.094 Y186.248 E19.17317
G1 X184.194 Y187.470 E19.38063
G1 X183.481 Y187.895 E19.45686
G1 X156.267 Y202.554 E22.29569
G1 X154.195 Y203.292 E22.49766
G1 X151.472 Y203.814 E22.75235
G1 X148.384 Y203.737 E23.03604
G1 X147.695 Y203.565 E23.10121
G1 X145.130 Y202.851 E23.34578
G1 X143.680 Y202.274 E23.48911
G1 X116.565 Y187.920 E26.30671
G1 X115.806 Y187.470 E26.38774
G1 X113.906 Y186.248 E26.59520
G1 X112.176 Y184.690 E26.80898
G1 X110.993 Y183.195 E26.98414
G1 X110.334 Y182.202 E27.09353
G1 X97.580 Y159.059 E29.52037
G1 X96.889 Y157.286 E29.69508
G1 X96.843 Y157.101 E29.71265
G1 X96.450 Y155.325 E29.87972
G1 X96.283 Y153.559 E30.04259
G1 X96.340 Y151.690 E30.21435
G1 X96.520 Y150.289 E30.34401
G1 X96.930 Y148.505 E30.51213
G1 X97.246 Y147.485 E30.61025
G1 X109.662 Y115.789 E33.73646
G1 X110.794 Y113.851 E33.94269
G1 X111.967 Y112.417 E34.11278
G1 X112.486 Y112.771 F6000.000
G1 X113.390 Y111.876 E34.22959 F891.000
G1 X114.867 Y110.677 E34.40430
G1 X116.392 Y109.767 E34.56741
G1 X144.569 Y97.736 E37.38122
G1 X145.922 Y97.322 E37.51116
G1 X148.646 Y96.800 E37.76585
G1 X151.468 Y96.870 E38.02509
G1 X152.137 Y97.038 E38.08846 F891.000
G1 X154.703 Y97.751 E38.33303
G1 X155.481 Y98.020 E38.40868
G1 X183.560 Y109.747 E41.20320
G1 X185.133 Y110.677 E41.37110
G1 X186.610 Y111.876 E41.54581
G1 X187.514 Y112.771 E41.66262
G1 X188.721 Y114.246 E41.83764
G1 X189.757 Y116.017 E42.02609
G1 X202.173 Y147.713 E45.15231
G1 X202.461 Y148.645 E45.24197
G1 X202.871 Y150.429 E45.41010
G1 X203.036 Y151.709 E45.52857
G1 X203.093 Y153.577 E45.70018
G1 X202.940 Y155.190 E45.84902
G1 X202.504 Y157.138 E46.03230
G1 X201.872 Y158.757 E46.19196
G1 X189.119 Y181.901 E48.61880
G1 X188.517 Y182.807 E48.71876
G1 X187.336 Y184.299 E48.89345
G1 X185.756 Y185.723 E49.08881
G1 X183.973 Y186.871 E49.28355
G1 X183.185 Y187.345 E49.36801
G1 X155.971 Y202.004 E52.20685
G1 X154.078 Y202.678 E52.39141
G1 X151.354 Y203.200 E52.64610
G1 X148.532 Y203.130 E52.90534
G1 X147.863 Y202.962 E52.96871
G1 X145.297 Y202.249 E53.21328
G1 X143.972 Y201.721 E53.34425
G1 X116.857 Y187.368 E56.16185
G1 X116.134 Y186.938 E56.23909
G1 X114.244 Y185.723 E56.44545
G1 X112.664 Y184.299 E56.64081
G1 X111.483 Y182.807 E56.81550
G1 X110.881 Y181.901 E56.91546
G1 X98.128 Y158.757 E59.34230
G1 X97.496 Y157.138 E59.50196
G1 X97.450 Y156.952 E59.51952
G1 X97.060 Y155.190 E59.68524
G1 X96.907 Y153.577 E59.83408
G1 X96.964 Y151.709 E60.00569
G1 X97.129 Y150.429 E60.12417
G1 X97.539 Y148.645 E60.29229
G1 X97.827 Y147.713 E60.38195
G1 X110.243 Y116.017 E63.50817
G1 X111.279 Y114.246 E63.69662
G1 X112.448 Y112.817 E63.86613
G1 E59.86613 F3000.00000
G92 E0
G1 X156.294 Y191.166 F6000.000
G1 E4.00000 F3000.00000
G1 X156.232 Y191.578 E4.03826 F594.000
G1 X155.937 Y191.953 E4.08214
G1 X155.652 Y191.778 E4.11286
G1 X155.983 Y191.072 E4.18447
G1 X156.236 Y191.148 E4.20872
G1 E0.20872 F3000.00000
G92 E0
G1 X181.800 Y156.601 F6000.000
G1 E4.00000 F3000.00000
G1 X182.029 Y156.313 E4.03380 F594.000
G1 X183.063 Y157.099 E4.15313
G1 X182.865 Y157.393 E4.18566
G1 X182.503 Y157.177 E4.22437
G1 X181.847 Y156.640 E4.30226
G1 E0.30226 F3000.00000
G92 E0
G1 X160.961 Y150.814 F6000.000
G1 E4.00000 F3000.00000
G1 X161.783 Y151.419 E4.09374 F792.000
G1 X162.148 Y152.025 E4.15869
G1 X163.135 Y152.592 E4.26320
G1 X165.764 Y154.236 E4.54801
G1 X170.700 Y157.374 E5.08518
G1 X173.518 Y160.249 E5.45495
G1 X174.375 Y162.778 E5.70016
G1 X174.089 Y166.332 E6.02759
G1 X172.984 Y169.219 E6.31150
G1 X171.888 Y172.308 E6.61248
G1 X171.722 Y175.362 E6.89345
G1 X172.102 Y177.046 E7.05192
G1 X172.814 Y178.356 E7.18884
G1 X172.567 Y178.551 E7.21777
G1 X172.389 Y178.393 E7.23964
G1 X171.509 Y176.870 E7.40124
G1 X170.959 Y175.262 E7.55728
G1 X171.020 Y172.318 E7.82771
G1 X171.643 Y169.309 E8.10994
G1 X172.491 Y166.229 E8.40335
G1 X172.689 Y162.531 E8.74339
G1 X171.532 Y160.049 E8.99498
G1 X169.288 Y158.483 E9.24626
G1 X167.543 Y157.878 E9.41585
G1 X167.247 Y157.830 E9.44342
G1 X165.189 Y157.702 E9.63276
G1 X163.003 Y158.054 E9.83609
G1 X162.585 Y158.063 E9.87449
G1 X162.331 Y158.287 E9.90564
G1 X159.184 Y160.030 E10.23604
G1 X158.540 Y162.072 E10.43263
G1 X157.404 Y164.780 E10.70229
G1 X157.383 Y164.871 E10.71094
G1 X156.394 Y166.925 E10.92027
G1 X155.364 Y167.798 E11.04428
G1 X154.023 Y168.374 E11.17824
G1 X153.078 Y168.650 E11.26870
G1 X150.185 Y169.024 E11.53660
G1 X149.249 Y171.665 E11.79399
G1 X149.119 Y171.947 E11.82249
G1 X148.483 Y173.884 E12.00969
G1 X148.562 Y174.335 E12.05173
G1 X148.667 Y176.414 E12.24290
G1 X149.761 Y178.919 E12.49397
G1 X150.926 Y180.565 E12.67915
G1 X153.094 Y181.951 E12.91553
G1 X155.449 Y183.961 E13.19983
G1 X156.439 Y186.014 E13.40912
G1 X156.725 Y188.270 E13.61796
G1 X156.476 Y189.945 E13.77353
G1 X156.124 Y189.915 E13.80592
G1 X156.166 Y188.287 E13.95548
G1 X155.720 Y186.614 E14.11440
G1 X154.446 Y185.028 E14.30123
G1 X152.269 Y183.126 E14.56676
G1 X150.186 Y182.013 E14.78364
G1 X149.970 Y181.832 E14.80956
G1 X147.965 Y180.383 E15.03674
G1 X146.493 Y178.507 E15.25571
G1 X145.210 Y176.280 E15.49178
G1 X144.509 Y173.988 E15.71187
G1 X144.307 Y170.549 E16.02830
G1 X144.812 Y167.546 E16.30795
G1 X144.228 Y167.024 E16.37988
G1 X143.632 Y166.678 E16.44321
G1 X142.603 Y164.829 E16.63751
G1 X141.723 Y161.572 E16.94731
G1 X140.691 Y159.961 E17.12301
G1 X137.669 Y158.287 E17.44031
G1 X137.415 Y158.063 E17.47147
G1 X136.997 Y158.054 E17.50987
G1 X134.811 Y157.702 E17.71320
G1 X132.753 Y157.830 E17.90254
G1 X132.457 Y157.878 E17.93011
G1 X130.712 Y158.483 E18.09970
G1 X128.468 Y160.049 E18.35098
G1 X127.311 Y162.531 E18.60257
G1 X127.509 Y166.229 E18.94261
G1 X128.357 Y169.309 E19.23602
G1 X128.980 Y172.318 E19.51825
G1 X129.041 Y175.262 E19.78868
G1 X128.491 Y176.870 E19.94472
G1 X127.611 Y178.393 E20.10632
G1 X127.433 Y178.551 E20.12819
G1 X127.186 Y178.356 E20.15712
G1 X127.898 Y177.046 E20.29404
G1 X128.278 Y175.362 E20.45251
G1 X128.112 Y172.308 E20.73348
G1 X127.016 Y169.219 E21.03446
G1 X125.911 Y166.332 E21.31836
G1 X125.625 Y162.778 E21.64580
G1 X126.481 Y160.249 E21.89101
G1 X129.300 Y157.374 E22.26078
G1 X134.236 Y154.236 E22.79795
G1 X136.865 Y152.592 E23.08275
G1 X137.852 Y152.025 E23.18726
G1 X138.217 Y151.419 E23.25222
G1 X139.039 Y150.814 E23.34596
G1 X137.573 Y149.343 E23.53666
G1 X137.124 Y149.261 E23.57854
G1 X135.508 Y148.765 E23.73384
G1 X131.426 Y148.721 E24.10869
G1 X128.655 Y149.149 E24.36621
G1 X126.156 Y149.887 E24.60551
G1 X124.474 Y150.692 E24.77675
G1 X123.023 Y152.057 E24.95973
G1 X121.129 Y154.017 E25.21002
G1 X119.488 Y155.544 E25.41591
G1 X118.934 Y155.999 E25.48175
G1 X118.694 Y155.749 E25.51358
G1 X120.456 Y153.767 E25.75715
G1 X122.205 Y151.555 E26.01611
G1 X124.295 Y149.568 E26.28093
G1 X126.610 Y148.012 E26.53715
G1 X126.821 Y147.919 E26.55830
G1 X129.128 Y146.708 E26.79759
G1 X131.904 Y145.554 E27.07370
G1 X135.544 Y144.460 E27.42278
G1 X137.477 Y144.179 E27.60213
G1 X139.781 Y143.404 E27.82547
G1 X137.548 Y141.995 E28.06795
G1 X137.446 Y141.959 E28.07792
G1 X136.819 Y141.564 E28.14594
G1 X133.323 Y140.393 E28.48460
G1 X129.853 Y138.479 E28.84851
G1 X127.781 Y136.937 E29.08568
G1 X126.775 Y134.543 E29.32423
G1 X126.637 Y132.389 E29.52239
G1 X127.395 Y129.635 E29.78474
G1 X127.916 Y127.343 E30.00064
G1 X128.450 Y125.425 E30.18350
G1 X128.800 Y125.505 E30.21642
G1 X128.436 Y127.490 E30.40179
G1 X128.471 Y130.272 E30.65722
G1 X128.470 Y132.256 E30.83948
G1 X129.027 Y134.206 E31.02570
G1 X130.293 Y135.584 E31.19762
G1 X131.683 Y136.288 E31.34066
G1 X133.931 Y136.784 E31.55207
G1 X137.127 Y136.761 E31.84558
G1 X140.692 Y136.640 E32.17324
G1 X143.766 Y137.562 E32.46793
G1 X144.288 Y137.528 E32.51603
G1 X144.611 Y137.337 E32.55045
G1 X150.157 Y135.509 E33.08676
G1 X149.557 Y134.248 E33.21500
G1 X149.701 Y133.574 E33.27835
G1 X151.557 Y133.073 E33.45489
G1 X151.639 Y133.108 E33.46309
G1 X153.174 Y132.299 E33.62241
G1 X153.226 Y132.246 E33.62921
G1 X153.380 Y132.191 E33.64429
G1 X154.518 Y131.511 E33.76601
G1 X155.035 Y131.126 E33.82521
G1 X155.472 Y129.394 E33.98921
G1 X156.303 Y127.158 E34.20836
G1 X154.855 Y125.222 E34.43035
G1 X154.847 Y125.007 E34.45011
G1 X154.399 Y123.641 E34.58215
G1 X154.120 Y123.072 E34.64036
G1 X152.486 Y121.627 E34.84069
G1 X151.160 Y120.756 E34.98641
G1 X148.772 Y119.370 E35.23996
G1 X146.321 Y118.083 E35.49421
G1 X144.528 Y116.309 E35.72581
G1 X143.564 Y114.104 E35.94684
G1 X143.274 Y111.771 E36.16274
G1 X143.524 Y110.080 E36.31970
G1 X143.875 Y110.110 E36.35211
G1 X143.834 Y111.727 E36.50061
G1 X144.275 Y113.413 E36.66063
G1 X145.477 Y114.994 E36.84310
G1 X147.354 Y116.698 E37.07590
G1 X149.399 Y117.656 E37.28331
G1 X152.273 Y118.965 E37.57334
G1 X154.206 Y120.025 E37.77580
G1 X156.387 Y121.561 E38.02083
G1 X158.649 Y123.969 E38.32418
G1 X159.449 Y127.045 E38.61606
G1 X157.878 Y129.666 E38.89677
G1 X157.005 Y131.889 E39.11606
G1 X156.391 Y133.112 E39.24177
G1 X159.031 Y134.791 E39.52913
G1 X159.095 Y135.046 E39.55329
G1 X162.929 Y136.694 E39.93651
G1 X166.243 Y137.063 E40.24281
G1 X168.395 Y136.553 E40.44589
G1 X169.697 Y135.825 E40.58294
G1 X170.951 Y134.461 E40.75307
G1 X171.509 Y132.486 E40.94158
G1 X171.499 Y130.431 E41.13024
G1 X171.536 Y127.528 E41.39689
G1 X171.180 Y125.458 E41.58980
G1 X171.529 Y125.381 E41.62268
G1 X172.064 Y127.366 E41.81146
G1 X172.583 Y129.758 E42.03624
G1 X173.306 Y132.374 E42.28551
G1 X173.342 Y132.578 E42.30454
G1 X173.203 Y134.808 E42.50974
G1 X172.212 Y137.280 E42.75434
G1 X170.499 Y138.875 E42.96921
G1 X167.231 Y140.601 E43.30866
G1 X163.273 Y141.553 E43.68258
G1 X161.580 Y142.535 E43.86237
G1 X161.595 Y143.867 E43.98467
G1 X162.523 Y144.179 E44.07459
G1 X164.456 Y144.460 E44.25394
G1 X168.096 Y145.554 E44.60302
G1 X170.872 Y146.708 E44.87913
G1 X173.179 Y147.919 E45.11842
G1 X173.390 Y148.012 E45.13957
G1 X175.705 Y149.568 E45.39579
G1 X177.795 Y151.555 E45.66061
G1 X179.544 Y153.767 E45.91957
G1 X181.306 Y155.749 E46.16314
G1 X181.066 Y155.999 E46.19496
G1 X180.512 Y155.544 E46.26081
G1 X178.871 Y154.017 E46.46670
G1 X176.977 Y152.057 E46.71698
G1 X175.526 Y150.692 E46.89997
G1 X173.844 Y149.887 E47.07121
G1 X171.345 Y149.149 E47.31051
G1 X168.574 Y148.721 E47.56803
G1 X164.492 Y148.765 E47.94287
G1 X162.876 Y149.261 E48.09816
G1 X162.427 Y149.343 E48.14006
G1 X161.003 Y150.772 E48.32525
G1 E44.32525 F3000.00000
G92 E0
G1 X144.018 Y108.926 F6000.000
G1 E4.00000 F3000.00000
G1 X143.708 Y108.832 E4.02974 F594.000
G1 X143.768 Y108.421 E4.06796
G1 X144.064 Y108.044 E4.11189
G1 X144.349 Y108.220 E4.14261
G1 X144.043 Y108.871 E4.20869
G1 E0.20869 F3000.00000
G92 E0
G1 X117.971 Y156.313 F6000.000
G1 E4.00000 F3000.00000
G1 X118.200 Y156.601 E4.03380 F594.000
G1 X117.497 Y157.177 E4.11721
G1 X117.135 Y157.393 E4.15592
G1 X116.937 Y157.099 E4.18844
G1 X117.924 Y156.349 E4.30227
G1 E0.30227 F3000.00000
G92 E0
G1 X138.084 Y150.741 F6000.000
G1 E4.00000 F3000.00000
G1 X137.268 Y149.923 E4.10609 F396.000
G1 X136.976 Y149.869 E4.13339
G1 X135.411 Y149.389 E4.28371
G1 X131.471 Y149.347 E4.64556
G1 X128.792 Y149.760 E4.89451
G1 X126.381 Y150.472 E5.12538
G1 X124.832 Y151.214 E5.28314
G1 X123.462 Y152.502 E5.45583
G1 X121.567 Y154.463 E5.70625
G1 X119.900 Y156.015 E5.91546
G1 X117.857 Y157.690 E6.15808
G1 X116.191 Y158.681 E6.33612
G1 X113.890 Y159.492 E6.56017
G1 X112.490 Y159.843 E6.69275
G1 X109.813 Y159.775 E6.93867
G1 X108.322 Y159.417 E7.07946
G1 X106.690 Y158.581 E7.24787
G1 X105.438 Y157.540 E7.39738
G1 X104.260 Y155.433 E7.61905
G1 X103.881 Y153.731 E7.77929
G1 X103.935 Y151.958 E7.94215
G1 X104.325 Y150.261 E8.10207
G1 X105.200 Y148.794 E8.25893
G1 X106.363 Y147.644 E8.40917
G1 X108.015 Y146.883 E8.57622
G1 X110.272 Y146.599 E8.78511
G1 X112.009 Y147.227 E8.95476
G1 X112.272 Y147.301 E8.97989
G1 X114.125 Y148.972 E9.20896
G1 X114.239 Y149.264 E9.23776
G1 X114.688 Y150.647 E9.37134
G1 X114.374 Y150.782 E9.40274
G1 X113.598 Y149.356 E9.55185
G1 X111.869 Y148.153 E9.74527
G1 X111.565 Y148.073 E9.77413
G1 X110.112 Y147.564 E9.91554
G1 X108.314 Y147.774 E10.08181
G1 X107.297 Y148.400 E10.19151
G1 X106.204 Y149.402 E10.32765
G1 X105.430 Y150.772 E10.47218
G1 X105.050 Y151.999 E10.59014
G1 X104.945 Y153.288 E10.70888
G1 X105.176 Y154.559 E10.82754
G1 X106.189 Y156.595 E11.03639
G1 X107.388 Y157.533 E11.17623
G1 X108.572 Y158.227 E11.30221
G1 X109.756 Y158.560 E11.41518
G1 X111.596 Y158.643 E11.58441
G1 X112.714 Y158.416 E11.68915
G1 X114.488 Y157.820 E11.86102
G1 X116.104 Y156.948 E12.02966
G1 X118.229 Y155.332 E12.27481
G1 X119.977 Y153.365 E12.51648
G1 X121.742 Y151.133 E12.77785
G1 X123.902 Y149.079 E13.05158
G1 X126.308 Y147.461 E13.31781
G1 X126.550 Y147.356 E13.34210
G1 X128.862 Y146.142 E13.58189
G1 X131.693 Y144.965 E13.86350
G1 X135.408 Y143.848 E14.21976
G1 X137.331 Y143.569 E14.39817
G1 X138.336 Y143.231 E14.49556
G1 X137.274 Y142.561 E14.61091
G1 X137.172 Y142.525 E14.62085
G1 X136.550 Y142.133 E14.68834
G1 X133.070 Y140.968 E15.02533
G1 X129.514 Y139.005 E15.39833
G1 X127.271 Y137.337 E15.65506
G1 X126.158 Y134.688 E15.91897
G1 X126.008 Y132.344 E16.13462
G1 X126.070 Y132.050 E16.16226
G1 X126.789 Y129.482 E16.40721
G1 X127.310 Y127.190 E16.62306
G1 X128.115 Y124.300 E16.89852
G1 X128.364 Y121.434 E17.16271
G1 X127.993 Y119.751 E17.32100
G1 X127.268 Y118.359 E17.46521
G1 X126.318 Y117.452 E17.58584
G1 X124.881 Y116.844 E17.72908
G1 X122.776 Y116.405 E17.92662
G1 X121.083 Y116.719 E18.08475
G1 X119.683 Y117.197 E18.22059
G1 X118.634 Y118.082 E18.34667
G1 X117.749 Y119.184 E18.47650
G1 X117.326 Y120.917 E18.64032
G1 X117.341 Y122.359 E18.77267
G1 X117.635 Y123.528 E18.88339
G1 X118.780 Y124.929 E19.04958
G1 X119.141 Y125.119 E19.08701
G1 X120.483 Y125.737 E19.22268
G1 X122.560 Y126.075 E19.41596
G1 X123.738 Y125.712 E19.52918
G1 X123.868 Y126.028 E19.56059
G1 X122.653 Y126.665 E19.68654
G1 X120.175 Y126.584 E19.91424
G1 X119.889 Y126.440 E19.94368
G1 X118.260 Y125.709 E20.10767
G1 X116.839 Y123.939 E20.31616
G1 X116.182 Y122.251 E20.48251
G1 X116.183 Y120.618 E20.63243
G1 X116.730 Y118.598 E20.82471
G1 X117.825 Y117.260 E20.98347
G1 X119.172 Y116.165 E21.14289
G1 X120.950 Y115.459 E21.31858
G1 X122.745 Y115.171 E21.48549
G1 X125.076 Y115.544 E21.70230
G1 X127.011 Y116.467 E21.89924
G1 X128.374 Y117.715 E22.06891
G1 X129.258 Y119.414 E22.24475
G1 X129.759 Y121.360 E22.42930
G1 X129.621 Y124.490 E22.71704
G1 X129.061 Y127.543 E23.00216
G1 X129.096 Y130.268 E23.25239
G1 X129.095 Y132.169 E23.42698
G1 X129.587 Y133.892 E23.59156
G1 X130.677 Y135.078 E23.73948
G1 X131.894 Y135.695 E23.86485
G1 X133.997 Y136.158 E24.06255
G1 X137.114 Y136.137 E24.34883
G1 X140.773 Y136.012 E24.68512
G1 X143.838 Y136.931 E24.97891
G1 X144.099 Y136.914 E25.00297
